X:5980
T:Stybarrow Crag
A:North-West
C:Hamilton
M:4/4
O:England
R:Hornpipe
Z:Richard Robinson 
%%TUNEURL: http://www.leeds.ac.uk/music/Info/RRTuneBk/gettune/000004f5.html
%%ID:000004f5
K:A
ed|\
c2ec d2fd| e2fg a2gf| \
eaec aedc| c2B2 B2ed| \
ccce dddf| eeeg a2gf|
eaec BABc| A2c2 A2  ::\
gf|\
efge bege| gefd cAec|
dBfd cAec| BABc B2ed| \
cedf eagb| aefg a2gf| \
eaec BABc| A2c2 A2:|
